X:786
T:Wakefield Hunt
C:Thompson, 1779
S:Colin Hume's website,  colinhume.com  - chords can also be printed below the stave.
Q:3/8=120
M:6/8
K:G
P:A
|: "G"d3 B2c | "G"dBG E2D | "C"EFG "G"D2B | "Am"c2B "D7"A2G |\
"G"d3 B2c | "G"dBG E2D | "C"EFG "G"D2c | "D7"BcA "G"G3 :|
P:B
|: "G"dBG "Am"ecA | "G"dBG E2D | "C"EFG "G"D2B | "Am"c2B "D7"A2G |\
"G"dBG "Am"ecA | "G"dBG E2D | "C"EFG "G"D2c | "D7"BcA "G"G3 :|
P:C
|: "G"D2D "C"E2E | "G"D2B c2B | "Am"Ace "G"dBG | "Am"F2G "D7"A3 |\
"G"D2D "C"E2E | "G"D2B c2B | "Am"Ace dec | "D7"BcA "G"G3 :|

